images/camera-photo-symbolic.svg

<?xml version="1.0" encoding="UTF-8" standalone="no"?>
<svg
   xmlns:dc="http://purl.org/dc/elements/1.1/"
   xmlns:cc="http://creativecommons.org/ns#"
   xmlns:rdf="http://www.w3.org/1999/02/22-rdf-syntax-ns#"
   xmlns:svg="http://www.w3.org/2000/svg"
   xmlns="http://www.w3.org/2000/svg"
   version="1.1"
   width="96"
   viewBox="0 0 96 96.000001"
   height="96"
   id="svg4874">
  <defs
     id="defs9" />
  <metadata
     id="metadata4879">
    <rdf:RDF>
      <cc:Work
         rdf:about="">
        <dc:format>image/svg+xml</dc:format>
        <dc:type
           rdf:resource="http://purl.org/dc/dcmitype/StillImage" />
        <dc:title />
      </cc:Work>
    </rdf:RDF>
  </metadata>
  <rect
     id="rect4782"
     style="color:#000000;fill:none"
     transform="matrix(0,1,-1,0,0,0)"
     height="96"
     width="96"
     y="-96"
     x="-2.7465821e-06" />
  <path
     id="path4183"
     style="color:#000000;text-indent:0;text-decoration:none;text-decoration-line:none;text-decoration-style:solid;text-decoration-color:#000000;text-transform:none;block-progression:tb;white-space:normal;isolation:auto;mix-blend-mode:normal;solid-color:#000000;fill:#4d4d4d;color-rendering:auto;image-rendering:auto;shape-rendering:auto"
     d="m 16,12 0,3.045 c -3.088,0.066 -5.595,0.308 -7.748,1.496 -1.5055,0.831 -2.6969,2.236 -3.3555,3.99 C 4.2378,22.286 4,24.37 4,27 l 0,45 c 0,2.63 0.2378,4.712 0.8965,6.467 0.6586,1.754 1.85,3.159 3.3555,3.99 3.011,1.661 6.692,1.485 11.725,1.543 l 0.011,0 56.024,0 0.011,0 c 5.033,-0.058 8.714,0.118 11.725,-1.543 1.506,-0.831 2.697,-2.236 3.356,-3.99 C 91.762,76.712 92,74.63 92,72 l 0,-45 c 0,-2.63 -0.238,-4.714 -0.896,-6.469 -0.659,-1.754 -1.85,-3.159 -3.356,-3.99 C 84.737,14.88 81.056,15.058 76.023,15 L 76.012,15 32,15 32,12 16,12 Z m 4,7 56,0 c 5.038,0.059 8.352,0.237 9.816,1.045 0.734,0.405 1.153,0.853 1.543,1.893 C 87.75,22.977 88,24.63 88,27 l 0,45 c 0,2.37 -0.25,4.023 -0.641,5.062 -0.39,1.04 -0.809,1.488 -1.543,1.893 C 84.352,79.763 81.038,79.941 76,80 L 20.023,80 20,80 C 14.962,79.941 11.648,79.763 10.184,78.955 9.45,78.55 9.0328,78.102 8.6426,77.062 8.2523,76.023 8,74.37 8,72 L 8,27 C 8,24.63 8.2523,22.977 8.6426,21.938 9.0328,20.898 9.45,20.45 10.184,20.045 11.648,19.237 14.962,19.059 20,19 Z m 28,5 C 34.217,24 23,35.217 23,49 23,62.783 34.217,74 48,74 61.783,74 73,62.783 73,49 73,35.217 61.783,24 48,24 Z m 28,0 a 4,4 0 0 0 -4,4 4,4 0 0 0 4,4 4,4 0 0 0 4,-4 4,4 0 0 0 -4,-4 z M 48,28 C 59.622,28 69,37.378 69,49 69,60.622 59.622,70 48,70 36.378,70 27,60.622 27,49 27,37.378 36.378,28 48,28 Z m 0,4 A 17,17 0 0 0 31,49 17,17 0 0 0 48,66 17,17 0 0 0 65,49 17,17 0 0 0 48,32 Z m 0,3 a 8,8 0 0 1 8,8 8,8 0 0 1 -8,8 8,8 0 0 1 -8,-8 8,8 0 0 1 8,-8 z" />
  <path
     id="path3339"
     d="M 10.79823,83.157144 C 7.8897978,82.374732 6.5246232,81.330073 5.3840654,79.01411 l -0.9501671,-1.929364 0,-27.661017 c 0,-27.539892 0.00384,-27.668142 0.8756673,-29.288136 0.481617,-0.894915 1.3105576,-2.032796 1.8420903,-2.528623 1.2275202,-1.145063 4.0524541,-2.149343 6.0458791,-2.149343 2.350372,0 2.829584,-0.317381 2.829584,-1.874029 l 0,-1.380208 7.932203,0 7.932203,0 0,1.399365 0,1.399366 26.135594,0.151291 c 19.510739,0.112942 26.529555,0.280645 27.689808,0.661603 0.854819,0.280671 2.274924,1.16143 3.155793,1.957241 2.890861,2.611719 2.852729,2.153985 2.724964,32.709501 l -0.112938,27.009768 -0.923288,1.728358 c -1.15176,2.156042 -3.326112,3.625806 -6.158685,4.162992 -1.379008,0.261522 -14.919059,0.403887 -36.804057,0.386965 -28.797226,-0.02225 -34.9889,-0.125353 -36.800486,-0.612696 z m 74.584821,-3.835578 c 0.671186,-0.335849 1.543147,-1.251104 1.937687,-2.033898 0.667041,-1.32345 0.70983,-3.307282 0.610169,-28.28894 -0.120948,-30.317156 0.07401,-28.548684 -3.258634,-29.559027 -2.520021,-0.763984 -70.902929,-0.764939 -73.422099,-0.001 -3.2947862,0.999112 -3.1399984,-0.387947 -3.2684554,29.288701 -0.076213,17.606931 0.028686,26.678012 0.3210566,27.7638 0.5037799,1.870898 1.7868528,2.867028 4.2177898,3.27454 0.921825,0.154531 17.418418,0.255209 36.659096,0.223724 30.215642,-0.04943 35.149355,-0.140452 36.20339,-0.667875 l 0,-8e-6 z"
     style="fill:#4d4d4d;stroke:none;stroke-width:1px;stroke-linecap:butt;stroke-linejoin:miter;stroke-opacity:1" />
  <path
     id="path3341"
     d=""
     style="fill:#a0a0a0;stroke:none;stroke-width:1px;stroke-linecap:butt;stroke-linejoin:miter;stroke-opacity:1" />
</svg>

<?xml version="1.0" encoding="UTF-8"?>
<!-- Created with Inkscape (http://www.inkscape.org/) -->
<svg width="96" height="96" version="1.1" viewBox="0 0 96 96" xmlns="http://www.w3.org/2000/svg" xmlns:cc="http://creativecommons.org/ns#" xmlns:dc="http://purl.org/dc/elements/1.1/" xmlns:rdf="http://www.w3.org/1999/02/22-rdf-syntax-ns#">
 <metadata>
  <rdf:RDF>
   <cc:Work rdf:about="">
    <dc:format>image/svg+xml</dc:format>
    <dc:type rdf:resource="http://purl.org/dc/dcmitype/StillImage"/>
   </cc:Work>
  </rdf:RDF>
 </metadata>
 <rect transform="rotate(90)" x="-2.7466e-6" y="-96" width="96" height="96" color="#000000" fill="none"/>
 <path d="m16 12v3.045c-3.088 0.066-5.595 0.308-7.748 1.496-1.5055 0.831-2.6969 2.236-3.3555 3.99-0.6587 1.755-0.8965 3.839-0.8965 6.469v45c0 2.63 0.2378 4.712 0.8965 6.467 0.6586 1.754 1.85 3.159 3.3555 3.99 3.011 1.661 6.692 1.485 11.725 1.543h0.011 56.024 0.011c5.033-0.058 8.714 0.118 11.725-1.543 1.506-0.831 2.697-2.236 3.356-3.99 0.658-1.755 0.896-3.837 0.896-6.467v-45c0-2.63-0.238-4.714-0.896-6.469-0.659-1.754-1.85-3.159-3.356-3.99-3.011-1.661-6.692-1.483-11.725-1.541h-0.011-44.012v-3h-16zm4 7h56c5.038 0.059 8.352 0.237 9.816 1.045 0.734 0.405 1.153 0.853 1.543 1.893 0.391 1.039 0.641 2.692 0.641 5.062v45c0 2.37-0.25 4.023-0.641 5.062-0.39 1.04-0.809 1.488-1.543 1.893-1.464 0.808-4.778 0.986-9.816 1.045h-55.977-0.023c-5.038-0.059-8.352-0.237-9.816-1.045-0.734-0.405-1.1512-0.853-1.5414-1.893-0.3903-1.039-0.6426-2.692-0.6426-5.062v-45c0-2.37 0.2523-4.023 0.6426-5.062 0.3902-1.04 0.8074-1.488 1.5414-1.893 1.464-0.808 4.778-0.986 9.816-1.045zm28 5c-13.783 0-25 11.217-25 25s11.217 25 25 25 25-11.217 25-25-11.217-25-25-25zm28 0a4 4 0 0 0-4 4 4 4 0 0 0 4 4 4 4 0 0 0 4-4 4 4 0 0 0-4-4zm-28 4c11.622 0 21 9.378 21 21s-9.378 21-21 21-21-9.378-21-21 9.378-21 21-21zm0 4a17 17 0 0 0-17 17 17 17 0 0 0 17 17 17 17 0 0 0 17-17 17 17 0 0 0-17-17zm0 3a8 8 0 0 1 8 8 8 8 0 0 1-8 8 8 8 0 0 1-8-8 8 8 0 0 1 8-8z" color="#000000" color-rendering="auto" image-rendering="auto" shape-rendering="auto" solid-color="#000000" style="block-progression:tb;isolation:auto;mix-blend-mode:normal;text-decoration-color:#000000;text-decoration-line:none;text-decoration-style:solid;text-indent:0;text-transform:none;white-space:normal"/>
 <path d="m10.798 83.157c-2.9084-0.78241-4.2736-1.8271-5.4142-4.143l-0.95017-1.9294v-27.661c0-27.54 0.00384-27.668 0.87567-29.288 0.48162-0.89492 1.3106-2.0328 1.8421-2.5286 1.2275-1.1451 4.0525-2.1493 6.0459-2.1493 2.3504 0 2.8296-0.31738 2.8296-1.874v-1.3802h7.9322 7.9322v1.3994 1.3994l26.136 0.15129c19.511 0.11294 26.53 0.28064 27.69 0.6616 0.85482 0.28067 2.2749 1.1614 3.1558 1.9572 2.8909 2.6117 2.8527 2.154 2.725 32.71l-0.11294 27.01-0.92329 1.7284c-1.1518 2.156-3.3261 3.6258-6.1587 4.163-1.379 0.26152-14.919 0.40389-36.804 0.38696-28.797-0.02225-34.989-0.12535-36.8-0.6127zm74.585-3.8356c0.67119-0.33585 1.5431-1.2511 1.9377-2.0339 0.66704-1.3234 0.70983-3.3073 0.61017-28.289-0.12095-30.317 0.07401-28.549-3.2586-29.559-2.52-0.76398-70.903-0.76494-73.422-1e-3 -3.2948 0.99911-3.14-0.38795-3.2685 29.289-0.076213 17.607 0.028686 26.678 0.32106 27.764 0.50378 1.8709 1.7869 2.867 4.2178 3.2745 0.92182 0.15453 17.418 0.25521 36.659 0.22372 30.216-0.04943 35.149-0.14045 36.203-0.66788v-8e-6z"/>
</svg>
